src/img/icons/upload-white.svg

<?xml version="1.0" encoding="UTF-8"?>
<svg width="12px" height="13px" viewBox="0 0 12 13" version="1.1" xmlns="http://www.w3.org/2000/svg" xmlns:xlink="http://www.w3.org/1999/xlink">
    <title>upload</title>
    <desc>Created with Sketch.</desc>
    <g id="upload-border" stroke="none" stroke-width="1" fill="none" fill-rule="evenodd">
        <g id="3-submission-1440" transform="translate(-1260.000000, -402.000000)" fill="#FFFFFF" fill-rule="nonzero">
            <g id="Group-2" transform="translate(1145.000000, 389.000000)">
                <g id="upload" transform="translate(115.000000, 13.000000)">
                    <path d="M9.13071124,3.55031548 L6.30376757,0.145553571 C6.22703624,0.053625 6.11638159,0 6.00007305,0 C5.88376451,0 5.77310986,0.053625 5.69637853,0.145553571 L2.86943486,3.55031548 C2.7652418,3.67629167 2.73939545,3.85419048 2.80562671,4.00655357 C2.87105026,4.15806548 3.01482054,4.25595238 3.17312938,4.25595238 L4.78852576,4.25595238 L4.78852576,9.78869048 C4.78852576,10.023619 4.96945016,10.2142857 5.19237486,10.2142857 L6.80777124,10.2142857 C7.03069594,10.2142857 7.21162034,10.023619 7.21162034,9.78869048 L7.21162034,4.25595238 L8.82701672,4.25595238 C8.98532556,4.25595238 9.12909584,4.15891667 9.1945194,4.00655357 C9.25994295,3.85419048 9.235712,3.67544048 9.13071124,3.55031548 Z" id="Shape"></path>
                    <path d="M10.4,9.28571429 L10.4,11.5142857 L1.6,11.5142857 L1.6,9.28571429 L0,9.28571429 L0,12.2571429 C0,12.6679429 0.3584,13 0.8,13 L11.2,13 C11.6424,13 12,12.6679429 12,12.2571429 L12,9.28571429 L10.4,9.28571429 Z" id="Shape"></path>
                </g>
            </g>
        </g>
    </g>
</svg>

<svg width="12" height="13" xmlns="http://www.w3.org/2000/svg"><g fill="#FFF"><path d="M9.13 3.55L6.305.146A.397.397 0 006 0a.397.397 0 00-.304.146L2.87 3.55a.443.443 0 00-.063.457.403.403 0 00.367.249H4.79v5.533c0 .235.18.425.403.425h1.616c.223 0 .404-.19.404-.425V4.256h1.615a.402.402 0 00.368-.25.442.442 0 00-.064-.456z"/><path d="M10.4 9.286v2.228H1.6V9.286H0v2.971c0 .41.358.743.8.743h10.4c.442 0 .8-.332.8-.743V9.286h-1.6z"/></g></svg>
